4/img/svg/icon-cat-two.svg

<svg width="134" height="100" viewBox="0 0 134 100" fill="none" xmlns="http://www.w3.org/2000/svg">
<circle cx="69" cy="50" r="50" fill="#68B738"/>
<g clip-path="url(#clip0_2403_507)">
<path d="M123.118 25.7569C124.273 23.9199 125.807 22.3515 127.618 21.1569C128.618 20.4569 129.218 20.4569 129.818 21.7569C130.618 23.6569 131.318 25.6569 130.718 27.7569C130.609 28.113 130.588 28.4904 130.658 28.8564C130.728 29.2223 130.886 29.5658 131.118 29.8569C131.718 30.6569 132.218 31.4569 132.718 32.1569C133.399 33.0206 133.84 34.0482 133.998 35.1364C134.156 36.2246 134.025 37.3352 133.618 38.3569C133.251 39.3487 133.182 40.4261 133.418 41.4569C133.618 42.4469 133.618 43.4668 133.418 44.4569C133.337 45.1983 133.037 45.8987 132.556 46.4688C132.075 47.0388 131.435 47.4524 130.718 47.6569C129.439 47.9002 128.298 48.6137 127.518 49.6569C127.424 49.8105 127.291 49.9372 127.134 50.0247C126.976 50.1123 126.799 50.1578 126.618 50.1569C125.418 50.3569 122.418 47.6569 122.418 46.4569V45.8569C122.518 42.2569 122.318 41.9569 119.018 40.4569C118.328 40.2133 117.709 39.8007 117.218 39.2569C116.618 38.4569 115.818 38.5569 114.918 38.8569C114.018 39.1569 113.518 39.7569 113.618 40.7569C113.92 43.1777 114.02 45.6194 113.918 48.0569C113.925 48.335 113.993 48.6083 114.118 48.8569C117.218 53.3569 118.418 58.6569 119.918 63.7569C121.118 67.6569 123.318 69.7569 127.318 70.0569C127.958 70.1079 128.594 70.2082 129.218 70.3569C130.04 70.4889 130.803 70.8644 131.41 71.4349C132.016 72.0054 132.437 72.7445 132.618 73.5569C133.318 75.6569 132.918 76.1569 130.818 76.1569H124.318C123.477 76.1994 122.652 75.9125 122.018 75.3569C121.006 74.5027 119.856 73.8265 118.618 73.3569C117.249 72.8516 116.065 71.9455 115.218 70.7569C114.047 69.1203 112.706 67.612 111.218 66.2569C108.418 63.3569 105.418 60.5569 102.818 57.5569C100.839 55.5127 99.6972 52.8012 99.6182 49.9569C99.6182 49.0569 99.4182 48.6569 98.4182 49.0569C98.1188 49.2468 97.7728 49.3506 97.4182 49.3569C94.6182 49.3569 93.2182 51.0569 92.2182 53.5569C91.3182 55.6569 90.1182 57.6569 89.0182 59.7569C88.3945 61.0714 88.0538 62.5023 88.0182 63.9569C88.0182 66.3569 88.6182 67.1569 90.8182 67.9569C92.2182 68.4569 93.5182 68.9569 94.2182 70.3569C95.0182 71.9569 94.8182 72.3569 93.1182 72.4569H86.3182C85.9262 72.4957 85.5319 72.4104 85.191 72.213C84.8501 72.0156 84.5798 71.7162 84.4182 71.3569L82.6182 68.3569C82.0876 67.5741 81.7479 66.6779 81.6264 65.7401C81.5048 64.8023 81.6048 63.849 81.9182 62.9569C82.351 61.2204 82.3852 59.4084 82.0182 57.6569C81.7662 56.437 81.7879 55.1764 82.0819 53.9659C82.3758 52.7554 82.9347 51.6252 83.7182 50.6569C84.3182 49.9569 84.3182 49.6569 83.3182 49.4569C79.2291 48.5882 75.2649 47.2108 71.5182 45.3569C71.4917 45.3569 71.4663 45.3463 71.4475 45.3276C71.4288 45.3088 71.4182 45.2834 71.4182 45.2569C68.2182 44.0569 67.6182 44.2569 66.7182 47.5569C65.9182 50.3569 65.1182 53.1569 64.5182 56.0569C63.8182 59.2569 64.6182 62.2569 65.6182 65.2569C66.0182 66.4569 67.2182 66.3569 68.1182 66.6569C70.1182 67.2569 71.8182 68.0569 72.6182 70.1569C73.3182 71.7569 73.2182 71.9569 71.5182 71.9569C69.8182 71.9569 68.1182 71.8569 66.3182 71.9569C64.7993 71.9844 63.3169 71.4902 62.1182 70.5569C57.3182 67.3569 55.9182 62.4569 55.5182 57.1569C55.3182 53.8569 53.5182 51.2569 51.4182 48.7569C51.0182 48.2569 50.6182 48.0569 50.0182 48.4569C47.8717 49.6404 45.6307 50.6439 43.3182 51.4569C38.4925 53.1608 34.2579 56.2153 31.1182 60.2569C29.9459 61.7318 29.1866 63.4919 28.9182 65.3569C28.6182 67.1569 29.1182 67.9569 30.9182 68.4569C32.7182 68.9569 33.6182 69.9569 33.8182 71.8569C33.9182 72.6569 33.6182 73.0569 32.8182 73.0569H24.7182C24.4531 73.0381 24.1965 72.9555 23.9702 72.8162C23.7438 72.6769 23.5545 72.485 23.4182 72.2569C22.1621 70.7016 21.4899 68.7558 21.5182 66.7569C21.4658 63.3018 21.7673 59.8505 22.4182 56.4569C22.5517 55.4405 22.9311 54.4721 23.5236 53.6357C24.1161 52.7992 24.9038 52.12 25.8182 51.6569C31.7182 48.8569 34.8182 43.5569 37.6182 38.0569C38.2182 36.9569 37.7182 36.7569 36.7182 36.8569C33.9196 37.2454 31.2679 38.3474 29.0182 40.0569C26.0724 42.2057 23.2975 44.5795 20.7182 47.1569C17.9679 49.9505 14.3209 51.6855 10.4182 52.0569C3.11823 52.4569 -0.28177 48.3569 0.0182299 41.7569C0.0852924 39.5065 0.933877 37.3496 2.41823 35.6569C2.93425 34.9879 3.63796 34.4878 4.4395 34.2207C5.24103 33.9535 6.10401 33.9313 6.91823 34.1569C8.41823 34.5569 8.81823 35.3569 8.21823 36.8569C7.91823 37.4569 7.51823 37.9569 7.21823 38.5569C6.78683 39.1698 6.44975 39.844 6.21823 40.5569C5.11823 43.5569 6.61823 45.6569 9.71823 45.9569C13.0182 46.2569 15.7182 44.8569 18.2182 42.8569C21.2302 40.4451 23.9189 37.6555 26.2182 34.5569C27.9375 32.2943 30.1023 30.4081 32.5791 29.015C35.0558 27.6218 37.7918 26.7512 40.6182 26.4569C42.9182 26.1569 44.9182 25.1569 47.1182 24.5569C51.2327 23.3025 55.5172 22.6952 59.8182 22.7569C61.8103 22.8398 63.7948 22.4634 65.6182 21.6569C70.5182 19.6569 75.6182 19.6569 80.7182 20.6569C84.7182 21.4569 88.7182 22.4569 92.6182 23.4569C94.9392 23.8893 97.3257 23.8211 99.6182 23.2569C104.007 22.1444 108.496 21.4744 113.018 21.2569C115.981 21.1127 118.933 21.6964 121.618 22.9569C123.618 23.8569 123.618 23.8569 123.118 25.7569Z" fill="black"/>
</g>
<defs>
<clipPath id="clip0_2403_507">
<rect width="134" height="56" fill="white" transform="translate(0 20)"/>
</clipPath>
</defs>
</svg>

<svg width="134" height="100" fill="none" xmlns="http://www.w3.org/2000/svg"><circle cx="69" cy="50" r="50" fill="#68B738"/><g clip-path="url(#a)"><path d="M123.118 25.757a15.206 15.206 0 0 1 4.5-4.6c1-.7 1.6-.7 2.2.6.8 1.9 1.5 3.9.9 6a2.288 2.288 0 0 0 .4 2.1c.6.8 1.1 1.6 1.6 2.3a6.266 6.266 0 0 1 .9 6.2 5.437 5.437 0 0 0-.2 3.1c.2.99.2 2.01 0 3a3.752 3.752 0 0 1-2.7 3.2 5.212 5.212 0 0 0-3.2 2 1.05 1.05 0 0 1-.9.5c-1.2.2-4.2-2.5-4.2-3.7v-.6c.1-3.6-.1-3.9-3.4-5.4a4.399 4.399 0 0 1-1.8-1.2c-.6-.8-1.4-.7-2.3-.4-.9.3-1.4.9-1.3 1.9.302 2.42.402 4.862.3 7.3.007.278.075.551.2.8 3.1 4.5 4.3 9.8 5.8 14.9 1.2 3.9 3.4 6 7.4 6.3.64.05 1.276.151 1.9.3a4.164 4.164 0 0 1 3.4 3.2c.7 2.1.3 2.6-1.8 2.6h-6.5a3.242 3.242 0 0 1-2.3-.8 11.71 11.71 0 0 0-3.4-2 7.263 7.263 0 0 1-3.4-2.6 28.581 28.581 0 0 0-4-4.5c-2.8-2.9-5.8-5.7-8.4-8.7a11.381 11.381 0 0 1-3.2-7.6c0-.9-.2-1.3-1.2-.9-.3.19-.645.294-1 .3-2.8 0-4.2 1.7-5.2 4.2-.9 2.1-2.1 4.1-3.2 6.2a10.39 10.39 0 0 0-1 4.2c0 2.4.6 3.2 2.8 4 1.4.5 2.7 1 3.4 2.4.8 1.6.6 2-1.1 2.1h-6.8a1.88 1.88 0 0 1-1.9-1.1l-1.8-3a6.049 6.049 0 0 1-.7-5.4 11.86 11.86 0 0 0 .1-5.3 8.42 8.42 0 0 1 1.7-7c.6-.7.6-1-.4-1.2a50.068 50.068 0 0 1-11.8-4.1.1.1 0 0 1-.1-.1c-3.2-1.2-3.8-1-4.7 2.3-.8 2.8-1.6 5.6-2.2 8.5-.7 3.2.1 6.2 1.1 9.2.4 1.2 1.6 1.1 2.5 1.4 2 .6 3.7 1.4 4.5 3.5.7 1.6.6 1.8-1.1 1.8-1.7 0-3.4-.1-5.2 0a6.641 6.641 0 0 1-4.2-1.4c-4.8-3.2-6.2-8.1-6.6-13.4-.2-3.3-2-5.9-4.1-8.4-.4-.5-.8-.7-1.4-.3a44.322 44.322 0 0 1-6.7 3 26.71 26.71 0 0 0-12.2 8.8 10.63 10.63 0 0 0-2.2 5.1c-.3 1.8.2 2.6 2 3.1s2.7 1.5 2.9 3.4c.1.8-.2 1.2-1 1.2h-8.1a1.65 1.65 0 0 1-1.3-.8 8.56 8.56 0 0 1-1.9-5.5c-.052-3.455.25-6.907.9-10.3a6.3 6.3 0 0 1 3.4-4.8c5.9-2.8 9-8.1 11.8-13.6.6-1.1.1-1.3-.9-1.2a16.47 16.47 0 0 0-7.7 3.2 70.622 70.622 0 0 0-8.3 7.1 16.67 16.67 0 0 1-10.3 4.9c-7.3.4-10.7-3.7-10.4-10.3a9.69 9.69 0 0 1 2.4-6.1 4.25 4.25 0 0 1 4.5-1.5c1.5.4 1.9 1.2 1.3 2.7-.3.6-.7 1.1-1 1.7a7.499 7.499 0 0 0-1 2c-1.1 3 .4 5.1 3.5 5.4 3.3.3 6-1.1 8.5-3.1a44.94 44.94 0 0 0 8-8.3 20.79 20.79 0 0 1 14.4-8.1c2.3-.3 4.3-1.3 6.5-1.9a41.508 41.508 0 0 1 12.7-1.8 13.002 13.002 0 0 0 5.8-1.1c4.9-2 10-2 15.1-1 4 .8 8 1.8 11.9 2.8 2.321.432 4.708.364 7-.2a67.788 67.788 0 0 1 13.4-2c2.963-.144 5.915.44 8.6 1.7 2 .9 2 .9 1.5 2.8Z" fill="#000"/></g><defs><clipPath id="a"><path fill="#fff" transform="translate(0 20)" d="M0 0h134v56H0z"/></clipPath></defs></svg>
